images/icons/star-icon.svg

<svg width="16" height="18" viewBox="0 0 16 18" fill="none" xmlns="http://www.w3.org/2000/svg">
<path d="M7.67834 0.75V1.75M7.67834 15.75V16.75M0.750122 4.75L1.61614 5.25M13.7405 12.25L14.6065 12.75M14.6065 4.74999L13.7405 5.24999M1.61615 12.25L0.750122 12.75M11.6783 8.75C11.6783 6.54086 9.88744 4.75 7.67834 4.75C5.46918 4.75 3.67832 6.54086 3.67832 8.75C3.67832 10.9591 5.46918 12.75 7.67834 12.75C9.88744 12.75 11.6783 10.9591 11.6783 8.75Z" stroke="#1A1A1A" stroke-width="1.5" stroke-linecap="round" stroke-linejoin="round"/>
</svg>

<svg xmlns="http://www.w3.org/2000/svg" width="16" height="18" fill="none"><path stroke="#1A1A1A" stroke-linecap="round" stroke-linejoin="round" stroke-width="1.5" d="M7.678.75v1m0 14v1M.75 4.75l.866.5m12.125 7 .866.5m0-8-.866.5m-12.125 7-.866.5m10.928-4a4 4 0 1 0-8 0 4 4 0 0 0 8 0"/></svg>
